X: 1
T: Blaeberry Blossom, The
M: 4/4
L: 1/8
R: hornpipe
K: Dmaj
ABAF DFGA|B2 Bc BAFA|dfdB ABde|f2 fd e4|
ABAF DFGA|B2 Bc BAFA|dfdB ABdB|AFEF D4||
defg afdf|g2 fd edBc|defg afdf|g2 fd e4|
defg afdf|g2 fd edBc|dfdB ABdB|AFEF D4||
